X: 1369
T: Meyledip Bir Gül-i Zâre
C: Ali Rıfat Çağatay
O: Turkey
F: http://compmusic.upf.edu/node/140
N: nisaburek--sarki--yuruksemai_ii--meyledip_bir--ali_rifat_cagatay
N: makam= nisaburek
N: form= sarki
N: usul= yuruksemai_ii = 6/8
M: 6/8
L: 1/16
K: C ^9/8f ^3/4c ^3/4g 
Q: 1/4=192
%%MIDI tuningsystem comma53
ABcd efe2 c2e2  | a6e6  | Afef e2d2 c2Bf  | \
w:  ARANAĞME  |   |   | 
e2d2 cBA4z2  | 
w:   | 
EFGA BcAB cdef  | edcB Afe6  | Aa=gf edcB Afe2  | 
w:   |   |   | 
d2c2 BcA4z2  | EEA2 A2AB c2c2  | Bcd2 d2cd e4  | 
w:   |   |   | 
da=g2 f2e2 d2c2  | B4 Afe4z2  | EEA2 B2c2 d2f2  | \
w:   |   |   | 
e4 d2c3BA2  | 
w:   | 
e3d ced3cBe  | d2c2 B2A4z2  | ABcd efe2 c2e2  | 
w:   |   |  ARANAĞME  | 
a6e6  | Afef e2d2 c2Bf  | e2d2 cBA4z2  | \
w:   |   |   | 
EFGA BcAB cdef  | 
w:   | 
edcB Afe6  | Aa=gf edcB Afe2  | d2c2 BcA4z2  | 
w:   |   |   | 
EEA2 A2AB c2c2  | Bcd2 d2cd e4  | da=g2 f2e2 d2c2  | 
w:   |   |   | 
B4 Afe4z2  | EEA2 B2c2 d2f2  | e4 d2c3BA2  | \
w:   |   |   | 
e3d ced3cBe  | 
w:   | 
d2c2 B2A4z2  | a4 a2{b}a2 g2f2  | e6e2 d2c2  | \
w:   |  Meyl_ e *  dip   |  bir   | 
ded2 e2fe f2g2  | 
w:  gül_ *  *  i  zâ  | 
e8-e2z2  | a4 a2{b}a2 g2f2  | e6e2 d2c2  | \
w:  re    |  Meyl_ e *  dip   |  bir   | 
ded2 e2fe f2g2  | e8-e2z2  | 
w:  gül_ *  *  i  zâ  |  re    | 
A4 a2=g2 f2e2  | e2d2 c2B2 A2f2  | e4 d2c4B2  | \
w:  Dön düm_ aş  |  kıy  |  le  he zâ  | 
A2B2 c2d2 e2f2  | 
w:  re    | 
A4 a2=g2 f2e2  | e2d2 c2B2 A2f2  | e4 d2c4B2  | \
w:  Dön düm_ aş  |  kıy  |  le  he zâ  | 
A8-A2z2  | F2A2 c2e2 c2A2  | 
w:  re    |  SAZ  | 
c'8-c'2z2  | c'4 c'2c'2 b2a2  | b2a2 g2a2 g2f2  | \
w:   |  Baş la dım   |  fer  | 
e2b2 a2g2 f2e2  | e2f2 g2e4z2  | 
w:  yâd_ *  ü  zâ  |  re    | 
c'4 c'2c'2 b2a2  | b2a2 g2a2 g2f2  | \
w:  Baş la dım   |  fer  | 
e2b2 a2g2 f2e2  | e2f2 g2e4z2  | 
w:  yâd_ *  ü  zâ  |  re    | 
A4 a2=g2 f2e2  | e2d2 c2B2 A2f2  | .e4 d2c4B2  | \
w:  Â şı kım   |  â  |  şık  ne  çâ  | 
A2B2 c2d2 e2f2  | 
w:  re    | 
A4 a2=g2 f2e2  | e2d2 c2B2 A2f2  | .e4 d2c4B2  | A12  | \
w:  Â şı kım   |  â  |  şık  ne  çâ  |  re    | 
ABcd efe2 c2e2  | 
w:  ARANAĞME  | 
a6e6  | Afef e2d2 c2Bf  | e2d2 cBA4z2  | \
w:   |   |   | 
EFGA BcAB cdef  | 
w:   | 
edcB Afe6  | Aa=gf edcB Afe2  | d2c2 BcA4z2  | 
w:   |   |   | 
EEA2 A2AB c2c2  | Bcd2 d2cd e4  | da=g2 f2e2 d2c2  | 
w:   |   |   | 
B4 Afe4z2  | EEA2 B2c2 d2f2  | e4 d2c3BA2  | \
w:   |   |   | 
e3d ced3cBe  | 
w:   | 
d2c2 B2A4z2  | ABcd efe2 c2e2  | a6e6  | \
w:   |  ARANAĞME  |   | 
Afef e2d2 c2Bf  | 
w:   | 
e2d2 cBA4z2  | EFGA BcAB cdef  | edcB Afe6  | 
w:   |   |   | 
Aa=gf edcB Afe2  | d2c2 BcA4z2  | EEA2 A2AB c2c2  | 
w:   |   |   | 
Bcd2 d2cd e4  | da=g2 f2e2 d2c2  | B4 Afe4z2  | \
w:   |   |   | 
EEA2 B2c2 d2f2  | 
w:   | 
e4 d2c3BA2  | e3d ced3cBe  | d2c2 B2A4z2  | \
w:   |   |   | 
a4 a2{b}a2 g2f2  | 
w:  Meyl_ e *  dip   | 
e6e2 d2c2  | ded2 e2fe f2g2  | e8-e2z2  | \
w:  bir   |  gül_ *  *  i  zâ  |  re    | 
a4 a2{b}a2 g2f2  | e6e2 d2c2  | 
w:  Meyl_ e *  dip   |  bir   | 
ded2 e2fe f2g2  | e8-e2z2  | A4 a2=g2 f2e2  | \
w:  gül_ *  *  i  zâ  |  re    |  Dön düm_ aş  | 
e2d2 c2B2 A2f2  | 
w:  kıy  | 
e4 d2c4B2  | A2B2 c2d2 e2f2  | A4 a2=g2 f2e2  | \
w:  le  he zâ  |  re    |  Dön düm_ aş  | 
e2d2 c2B2 A2f2  | 
w:  kıy  | 
e4 d2c4B2  | A8-A2z2  | F2A2 c2e2 c2A2  | \
w:  le  he zâ  |  re    |  SAZ  | 
c'8-c'2z2  | c'4 c'2c'2 b2a2  | 
w:   |  Baş la dım   | 
b2a2 g2a2 g2f2  | e2b2 a2g2 f2e2  | e2f2 g2e4z2  | \
w:  fer  |  yâd_ *  ü  zâ  |  re    | 
c'4 c'2c'2 b2a2  | 
w:  Baş la dım   | 
b2a2 g2a2 g2f2  | e2b2 a2g2 f2e2  | e2f2 g2e4z2  | \
w:  fer  |  yâd_ *  ü  zâ  |  re    | 
A4 a2=g2 f2e2  | 
w:  Â şı kım   | 
e2d2 c2B2 A2f2  | .e4 d2c4B2  | A2B2 c2d2 e2f2  | \
w:  â  |  şık  ne  çâ  |  re    | 
A4 a2=g2 f2e2  | 
w:  Â şı kım   | 
e2d2 c2B2 A2f2  | .e4 d2c4B2  | A12  | |


